X:1
T:F minor              Amos Pilsbury, 1799
T:Charles Wesley, 1739 Hymn to Christ                66. 77. 76.
T:Autumn
T:Transcribed from The United States Sacred Harmony, 1799.
%%score [ 1 2 3 4 ]
L:1/8
Q:1/4=130
M:4/4
K:Ab
V:1 treble nm="Tr." snm="Tr."
V:2 treble nm="C." snm="C."
V:3 treble-8 nm="T." snm="T."
V:4 bass nm="B." snm="B."
V:1
 c4 c2 c2 | B4 (e2 d2) | c8 | A4 c2 A2 | (B>c d2) c4 | c8 | (c3 B A2) B2 | c6 c2 | (A2 B2 A>G) F2 | %9
w: 1.~Sa- vior, the|world's and *|mine,|Was ev- er|grief~ _ _ like|thine!|Thou~ _ _ my|pain, my|curse~ _ _ _ hast|
w: 2.~Tis done! My|God has *|died,|My love is|cru- * * ci-|fied!|Break~ _ _ this|sto- ny|heart~ _ _ _ of|
 G8 | (c3 B A2) B2 | c6 B2 | (A2 F2 B2) A2 | G8 |: A2 A>G F2 F2 | e2 f2 c4 | (A>Bcd e2) d2 | %17
w: took,|All~ _ _ my|sins were|laid~ _ _ on|thee.|Help me, * Lord, to|thee I look,|Draw~ _ _ _ _ me|
w: mine,|Pour~ _ _ my|eyes a|cease- * * less|flood.|Feel, my * soul, the|pangs di- vine,|Catch,~ _ _ _ _ my|
 c6 d2 | c6 c2 | c8 |] %20
w: Sa- vior,|af- ter|thee.|
w: heart, the|is- suing|blood!|
V:2
 F4 F2 F2 | (G2 E2) (C2 D2) | E8 | F4 F2 F2 | (E2 D2) (C2 E2) | F8 | (F3 G F2) E2 | A6 G2 | %8
w: 3.~When, O my|God, * shall *|I|For thee sub-|mit * to *|die?|How~ _ _ the|migh- ty|
w: 4.~To love is|all * my *|wish,|I on- ly|live * for *|this:|Grant~ _ _ me,|Lord, my|
 (F2 ED C2) B,2 | C8 | (F3 G F2) E2 | A6 G2 | (F4 E2) D2 | C8 |: F2 F>E F2 A2 | G2 F2 E4 | %16
w: debt~ _ _ _ re-|pay,|Ri- * * val|of thy|pas- * sion|prove?|Lead me * in thy-|self the way,|
w: heart's~ _ _ _ de-|sire,|There~ _ _ by|faith for-|ev- * er|dwell:|This I * al- ways|will re- quire|
 (F2 G2 A>G) F2 | G6 F2 | =E6 E2 | F8 |] %20
w: Melt~ _ _ _ my|hard- ness|in- to-|love.|
w: Thee~ _ _ _ and|on- ly|thee to|feel.|
V:3
 c4 A2 F2 | B4 (A2 B2) | c8 | c4 A2 c2 | (B2 A2) G4 | F8 | (c3 d e2) c2 | f6 e>d | (c2 B2 A2) B2 | %9
w: 5.~Thy power I|pant to *|prove,|Roo- ted and|fixed * in|love,|Strength- * * ened|by thy *|Spi- * * rit's|
w: 6.~Ah! give me|this to *|know|With all thy|saints * be-|low,|Swells~ _ _ my|soul to *|com- * * pass|
 c8 | (c3 d e2) e2 | f6 e2 | (d>c B2 e2) d2 | c8 |: c2 cB A2 F2 | B2 BA G4 | (F>GAB c2) f2 | %17
w: might,|Wise~ _ _ to|fa- thom|things~ _ _ _ di-|vine,|What the * length and|breadth and * height,|What~ _ _ _ _ the|
w: thee,|Gasps~ _ _ in|thee to|live~ _ _ _ and|move,|Filled with * all the|de- i- * ty,|All~ _ _ _ _ im-|
 (e2 c>dc>B) A2 | G6 G2 | F8 |] %20
w: depth~ _ _ _ _ of|love like|thine.|
w: mersed~ _ _ _ _ and|lost in|love!|
V:4
 F,4 F,2 F,2 | D,4 B,,4 | C,8 | F,4 F,2 A,,2 | B,,4 C,4 | [F,,F,]8 | (F,3 G, A,2) G,2 | F,6 C,2 | %8
 (F,2 E,2 F,2) G,2 | C,8 | (F,3 G, A,2) [E,G,]2 | F,6 C,2 | (F,4 E,2) F,2 | C,8 |: %14
"^______________________________________________\nEdited by B. C. Johnston, 2017""^1. Measure 2, Treble: first note changed from A to B.""^2. Measure 11, Tenor: last note changed from C to E.""^3. Measure 19, Counter: both notes marked as E, interpreted as E." F,2 F,>E, F,2 C,2 | %15
 D,2 B,,2 C,4 | C,6 F,2 | E,6 D,2 | C,4 C,4 | [F,,F,]8 |] %20

